X: 8
T:Tam Lin
M:C |
L:1/8
Q:140
R:Reel
K:Bm
FB{d}B{A}B ABcA | {A}G/G/G BG dGBG | {c}A/A/A cA eAcA | FABd cBAG | FB{d}B{A}B ABcA | {A}G/G/G BG dGBG | {c}A/A/A cA eAcA ||1 dBAG FB{d}B{A}B :|2 dBAG FAdf ||
bafe dB{d}B{A}B | bafe def^g | aAA/A/A ceAc | eAce acea | bafe dB{d}B{A}B | bafe dBEF | GFGA BABc | dBAG FB{d}B{A}B :|

